src/activities/gletters/gletters.svg

<?xml version="1.0" encoding="UTF-8" standalone="no"?>
<!-- Created with Inkscape (http://www.inkscape.org/) -->

<svg
   xmlns:dc="http://purl.org/dc/elements/1.1/"
   xmlns:cc="http://creativecommons.org/ns#"
   xmlns:rdf="http://www.w3.org/1999/02/22-rdf-syntax-ns#"
   xmlns:svg="http://www.w3.org/2000/svg"
   xmlns="http://www.w3.org/2000/svg"
   xmlns:sodipodi="http://sodipodi.sourceforge.net/DTD/sodipodi-0.dtd"
   xmlns:inkscape="http://www.inkscape.org/namespaces/inkscape"
   width="100"
   height="100"
   id="svg2"
   sodipodi:version="0.32"
   inkscape:version="0.92.1 r15371"
   version="1.0"
   sodipodi:docname="gletters.svg">
  <defs
     id="defs4" />
  <sodipodi:namedview
     id="base"
     pagecolor="#8b8b8b"
     bordercolor="#666666"
     borderopacity="1.0"
     inkscape:pageopacity="0"
     inkscape:pageshadow="2"
     inkscape:zoom="2.4116445"
     inkscape:cx="65.369557"
     inkscape:cy="59.801097"
     inkscape:document-units="px"
     inkscape:current-layer="text826"
     width="100px"
     height="100px"
     inkscape:window-width="1884"
     inkscape:window-height="1051"
     inkscape:window-x="0"
     inkscape:window-y="0"
     showguides="true"
     inkscape:guide-bbox="true"
     showgrid="false"
     inkscape:window-maximized="1" />
  <metadata
     id="metadata7">
    <rdf:RDF>
      <cc:Work
         rdf:about="">
        <dc:format>image/svg+xml</dc:format>
        <dc:type
           rdf:resource="http://purl.org/dc/dcmitype/StillImage" />
        <dc:title></dc:title>
        <dc:date>2015</dc:date>
        <dc:creator>
          <cc:Agent>
            <dc:title>Timothée Giet</dc:title>
          </cc:Agent>
        </dc:creator>
        <cc:license
           rdf:resource="http://creativecommons.org/licenses/by-sa/4.0/" />
      </cc:Work>
      <cc:License
         rdf:about="http://creativecommons.org/licenses/by-sa/4.0/">
        <cc:permits
           rdf:resource="http://creativecommons.org/ns#Reproduction" />
        <cc:permits
           rdf:resource="http://creativecommons.org/ns#Distribution" />
        <cc:requires
           rdf:resource="http://creativecommons.org/ns#Notice" />
        <cc:requires
           rdf:resource="http://creativecommons.org/ns#Attribution" />
        <cc:permits
           rdf:resource="http://creativecommons.org/ns#DerivativeWorks" />
        <cc:requires
           rdf:resource="http://creativecommons.org/ns#ShareAlike" />
      </cc:License>
    </rdf:RDF>
  </metadata>
  <g
     inkscape:label="Calque 1"
     inkscape:groupmode="layer"
     id="layer1">
    <g
       id="g5684-3"
       transform="translate(109.6588,92.25478)">
      <path
         sodipodi:nodetypes="ccccccccc"
         id="path5668-6"
         d="m -100.14271,1.9343122 16.586191,-25.7085982 18.244812,-23.220671 6.219823,-11.19568 19.903432,33.587041 L -16.797093,3.1782822 -44.16431,-0.13895781 -69.0436,3.1782822 Z"
         style="fill:#f9df9b;fill-opacity:1;fill-rule:evenodd;stroke:none;stroke-width:1px;stroke-linecap:butt;stroke-linejoin:miter;stroke-opacity:1"
         inkscape:connector-curvature="0" />
      <path
         id="path5666-7"
         d="m -58.302686,-60.766571 -1.480843,0.03429 -3.168315,5.658366 7.920788,-0.205759 z m 5.269046,8.881919 -11.846744,0.274346 -1.033146,1.851828 -2.548427,3.257847 17.115789,-0.44581 1.343091,0.137172 z m 4.959102,8.33323 -23.142477,0.514398 -3.753764,4.766744 22.006015,-0.54869 8.196294,0.788741 z m 4.752473,7.990299 -34.403771,0.788741 -3.960394,5.006797 1.997416,0.06859 27.206185,-0.685861 12.983205,1.234552 z m 1.584157,8.401816 -37.709838,0.823035 -4.683596,-0.308638 -1.894102,2.400518 -2.135169,3.29214 9.401631,0.240053 27.171746,-0.685863 18.975454,1.783243 -4.511405,-5.555487 -0.964271,-1.611777 z m 0.895394,8.984799 -37.709838,0.823035 -11.433486,-0.788742 -3.512697,5.418314 15.18725,0.411518 27.206184,-0.685863 25.828658,2.434812 -5.337923,-6.549987 z m -54.309056,8.058885 -3.547134,5.452607 1.205337,-0.068586 19.423149,0.5143969 27.171747,-0.6858626 30.408938,2.8806226 1.92854,-0.2057588 -4.649159,-5.7612455 -17.184665,-1.7832425 -37.675401,0.8573284 z m -4.408089,7.7502466 -0.723201,0.1371724 -3.99483,6.1727628 1.03314,0.034293 6.19888,-0.3086381 19.423149,0.5143968 19.939723,-0.5143968 15.083935,-1.9890014 30.167871,3.6350714 -3.65045,-4.52669274 -24.072308,-2.46910516 -37.709839,0.82303507 z"
         style="fill:#f3b41a;fill-opacity:1;fill-rule:evenodd;stroke:none;stroke-width:1px;stroke-linecap:butt;stroke-linejoin:miter;stroke-opacity:1"
         inkscape:connector-curvature="0" />
    </g>
    <path
       style="font-style:normal;font-variant:normal;font-weight:normal;font-stretch:normal;font-size:32px;line-height:1.25;font-family:Kabel;-inkscape-font-specification:Kabel;letter-spacing:0px;word-spacing:0px;fill:#315db6;fill-opacity:1;stroke:none"
       d="m 3.338582,83.339416 14.109375,-27.679688 14.140625,27.679688 -6.617187,1.4375 -2.820313,-5.882813 H 12.45577 l -2.492188,5.953125 z m 16.539063,-9.890625 -2.625,-5.789063 -2.554688,5.789063 z"
       id="path874-0"
       inkscape:connector-curvature="0" />
    <g
       aria-label="A"
       style="font-style:normal;font-variant:normal;font-weight:normal;font-stretch:normal;font-size:32px;line-height:1.25;font-family:Kabel;-inkscape-font-specification:Kabel;letter-spacing:0px;word-spacing:0px;fill:#5085e5;fill-opacity:1;stroke:none"
       id="text868"
       transform="translate(-3.376376,13.284233)">
      <path
         d="M 8.714958,68.494991 20.824333,44.375495 32.964958,68.494991 28.347771,69.492683 25.527458,63.60987 h -9.695312 l -2.492188,5.953125 z m 15.80605,-7.450817 -3.891987,-8.668679 -3.821675,8.668679 z"
         id="path874"
         inkscape:connector-curvature="0"
         sodipodi:nodetypes="cccccccccccc" />
    </g>
    <g
       aria-label="M O T"
       style="font-style:normal;font-variant:normal;font-weight:normal;font-stretch:normal;font-size:18.66666603px;line-height:1.25;font-family:Kabel;-inkscape-font-specification:Kabel;letter-spacing:0px;word-spacing:0px;fill:#000000;fill-opacity:1;stroke:none"
       id="text826"
       transform="translate(-76)">
      <path
         style="font-style:normal;font-variant:normal;font-weight:normal;font-stretch:normal;font-size:18.66666603px;line-height:1.25;font-family:Kabel;-inkscape-font-specification:Kabel;letter-spacing:0px;word-spacing:0px;fill:#315db6;fill-opacity:0.55775577;stroke:none;stroke-width:0.91409963px;stroke-linecap:butt;stroke-linejoin:miter;stroke-opacity:1"
         d="m 89.28023,41.893489 v 18.587005 l 0.82205,-2.839681 z"
         id="path839-1"
         inkscape:connector-curvature="0"
         sodipodi:nodetypes="cccc" />
      <path
         style="font-style:normal;font-variant:normal;font-weight:normal;font-stretch:normal;font-size:18.66666603px;line-height:1.25;font-family:Kabel;-inkscape-font-specification:Kabel;letter-spacing:0px;word-spacing:0px;fill:#315db6;fill-opacity:0.55686275;stroke:none;stroke-width:0.98042488px;stroke-linecap:butt;stroke-linejoin:miter;stroke-opacity:1"
         d="m 92.49081,37.254869 v 16.994945 l 0.61722,-4.931342 z"
         id="path839-0-5-0"
         inkscape:connector-curvature="0"
         sodipodi:nodetypes="cccc" />
      <path
         style="font-style:normal;font-variant:normal;font-weight:normal;font-stretch:normal;font-size:18.66666603px;line-height:1.25;font-family:Kabel;-inkscape-font-specification:Kabel;letter-spacing:0px;word-spacing:0px;fill:#e06420;fill-opacity:0.55686275;stroke:none;stroke-width:0.65616733px;stroke-linecap:butt;stroke-linejoin:miter;stroke-opacity:1"
         d="m 153.71482,19.667242 v 7.612377 l -0.61722,-2.208847 z"
         id="path839-0-5"
         inkscape:connector-curvature="0"
         sodipodi:nodetypes="cccc" />
      <path
         style="font-style:normal;font-variant:normal;font-weight:normal;font-stretch:normal;font-size:18.66666603px;line-height:1.25;font-family:Kabel;-inkscape-font-specification:Kabel;letter-spacing:0px;word-spacing:0px;fill:#e06420;fill-opacity:0.55686275;stroke:none;stroke-width:1.14432955px;stroke-linecap:butt;stroke-linejoin:miter;stroke-opacity:1"
         d="M 140.78293,4.7137779 V 27.866032 l 0.61722,-6.717979 z"
         id="path839-0-5-6"
         inkscape:connector-curvature="0"
         sodipodi:nodetypes="cccc" />
    </g>
    <g
       aria-label="E"
       style="font-style:normal;font-variant:normal;font-weight:normal;font-stretch:normal;font-size:32px;line-height:1.25;font-family:Kabel;-inkscape-font-specification:Kabel;letter-spacing:0px;word-spacing:0px;fill:#e06420;fill-opacity:1;stroke:none"
       id="text872"
       transform="translate(-3.3942386,7.0956605)">
      <path
         d="M 67.164185,48.249275 V 22.491463 H 82.52356 l 1.3125,5.695312 H 73.789185 v 4.0625 h 7.226562 v 5.695313 h -7.289062 v 4.609375 h 10.8125 l -1.695313,5.695312 z"
         id="path913"
         inkscape:connector-curvature="0" />
    </g>
    <g
       aria-label="E"
       style="font-style:normal;font-variant:normal;font-weight:normal;font-stretch:normal;font-size:32px;line-height:1.25;font-family:Kabel;-inkscape-font-specification:Kabel;letter-spacing:0px;word-spacing:0px;fill:#f38d55;fill-opacity:1;stroke:none"
       id="text872-8">
      <path
         d="M 64.89033,54.224551 V 30.487604 h 12.972004 l 1.019295,3.695312 H 69.51533 v 5.842596 h 6.839191 v 3.695313 H 69.45283 v 6.808414 h 10.131924 l -1.182204,3.695312 z"
         id="path910"
         inkscape:connector-curvature="0"
         style="fill:#f38d55;fill-opacity:1"
         sodipodi:nodetypes="ccccccccccccc" />
    </g>
  </g>
</svg>

<?xml version="1.0" encoding="UTF-8" standalone="no"?>
<!-- Created with Inkscape (http://www.inkscape.org/) -->

<svg
   xmlns:dc="http://purl.org/dc/elements/1.1/"
   xmlns:cc="http://creativecommons.org/ns#"
   xmlns:rdf="http://www.w3.org/1999/02/22-rdf-syntax-ns#"
   xmlns:svg="http://www.w3.org/2000/svg"
   xmlns="http://www.w3.org/2000/svg"
   xmlns:sodipodi="http://sodipodi.sourceforge.net/DTD/sodipodi-0.dtd"
   xmlns:inkscape="http://www.inkscape.org/namespaces/inkscape"
   width="100"
   height="100"
   id="svg2"
   sodipodi:version="0.32"
   inkscape:version="0.91 r13725"
   version="1.0"
   sodipodi:docname="gletters.svg">
  <defs
     id="defs4" />
  <sodipodi:namedview
     id="base"
     pagecolor="#8b8b8b"
     bordercolor="#666666"
     borderopacity="1.0"
     inkscape:pageopacity="0"
     inkscape:pageshadow="2"
     inkscape:zoom="6.8211606"
     inkscape:cx="10.10037"
     inkscape:cy="67.424433"
     inkscape:document-units="px"
     inkscape:current-layer="layer1"
     width="100px"
     height="100px"
     inkscape:window-width="1880"
     inkscape:window-height="1060"
     inkscape:window-x="-3"
     inkscape:window-y="-3"
     showguides="true"
     inkscape:guide-bbox="true"
     showgrid="false"
     inkscape:window-maximized="1" />
  <metadata
     id="metadata7">
    <rdf:RDF>
      <cc:Work
         rdf:about="">
        <dc:format>image/svg+xml</dc:format>
        <dc:type
           rdf:resource="http://purl.org/dc/dcmitype/StillImage" />
        <dc:title />
      </cc:Work>
    </rdf:RDF>
  </metadata>
  <g
     inkscape:label="Calque 1"
     inkscape:groupmode="layer"
     id="layer1">
    <g
       id="g5684"
       transform="translate(109.6588,88.25478)">
      <path
         sodipodi:nodetypes="ccccccccc"
         id="path5668"
         d="M -100.14271,1.9343122 L -83.556519,-23.774286 L -65.311707,-46.994957 L -59.091884,-58.190637 L -39.188452,-24.603596 L -16.797093,3.1782822 L -44.16431,-0.13895781 L -69.0436,3.1782822 L -100.14271,1.9343122 z "
         style="fill:#ffe195;fill-opacity:1;fill-rule:evenodd;stroke:none;stroke-width:1px;stroke-linecap:butt;stroke-linejoin:miter;stroke-opacity:1" />
      <path
         id="path5666"
         d="M -58.302686,-60.766571 L -59.783529,-60.732278 L -62.951844,-55.073912 L -55.031056,-55.279671 L -58.302686,-60.766571 z M -53.03364,-51.884652 L -64.880384,-51.610306 L -65.91353,-49.758478 L -68.461957,-46.500631 L -51.346168,-46.946441 L -50.003077,-46.809269 L -53.03364,-51.884652 z M -48.074538,-43.551422 L -71.217015,-43.037024 L -74.970779,-38.27028 L -52.964764,-38.81897 L -44.76847,-38.030229 L -48.074538,-43.551422 z M -43.322065,-35.561123 L -77.725836,-34.772382 L -81.68623,-29.765585 L -79.688814,-29.696999 L -52.482629,-30.38286 L -39.499424,-29.148308 L -43.322065,-35.561123 z M -41.737908,-27.159307 L -79.447746,-26.336272 L -84.131342,-26.64491 L -86.025444,-24.244392 L -88.160613,-20.952252 L -78.758982,-20.712199 L -51.587236,-21.398062 L -32.611782,-19.614819 L -37.123187,-25.170306 L -38.087458,-26.782083 L -41.737908,-27.159307 z M -40.842514,-18.174508 L -78.552352,-17.351473 L -89.985838,-18.140215 L -93.498535,-12.721901 L -78.311285,-12.310383 L -51.105101,-12.996246 L -25.276443,-10.561434 L -30.614366,-17.111421 L -40.842514,-18.174508 z M -95.15157,-10.115623 L -98.698704,-4.663016 L -97.493367,-4.7316021 L -78.070218,-4.2172052 L -50.898471,-4.9030678 L -20.489533,-2.0224452 L -18.560993,-2.228204 L -23.210152,-7.9894495 L -40.394817,-9.772692 L -78.070218,-8.9153636 L -95.15157,-10.115623 z M -99.559659,-2.3653764 L -100.28286,-2.228204 L -104.27769,3.9445588 L -103.24455,3.978852 L -97.04567,3.6702139 L -77.622521,4.1846107 L -57.682798,3.6702139 L -42.598863,1.6812125 L -12.430992,5.3162839 L -16.081442,0.78959116 L -40.15375,-1.679514 L -77.863589,-0.85647893 L -99.559659,-2.3653764 z "
         style="fill:#ffba0e;fill-opacity:1;fill-rule:evenodd;stroke:none;stroke-width:1px;stroke-linecap:butt;stroke-linejoin:miter;stroke-opacity:1" />
    </g>
    <path
       sodipodi:nodetypes="cccccccccc"
       style="fill:#ff140e;fill-opacity:1;fill-rule:evenodd;stroke:none;stroke-width:1.59396994px;stroke-linecap:butt;stroke-linejoin:miter;stroke-opacity:1"
       d="M 67.590908,30.878618 L 64.189142,36.542097 L 63.213306,46.720085 L 67.614865,53.532315 L 80.305887,52.765793 L 83.695839,45.798613 L 82.367767,35.85619 L 78.534148,28.991665 L 73.582242,26.305936 L 67.590908,30.878618 z "
       id="path3711" />
    <path
       style="fill:#2165cd;fill-opacity:1;fill-rule:evenodd;stroke:none;stroke-width:1px;stroke-linecap:butt;stroke-linejoin:miter;stroke-opacity:1"
       d="M 15.732888,59.977602 L 22.185449,60.992864 L 26.580309,63.44955 L 29.86072,67.64957 L 29.518329,71.740054 L 24.995352,72.742422 L 16.806495,72.22144 L 16.871674,78.192404 L 19.465063,75.172407 L 28.961663,76.461966 L 30.612917,80.84055 L 28.898724,85.891984 L 22.210908,88.651491 L 16.658519,86.524325 L 10.548348,81.41858 L 8.4254674,76.88904 L 7.7384454,69.669023 L 8.7236584,63.684252 L 15.732888,59.977602 z "
       id="path2824" />
    <path
       style="font-size:38.71047211px;font-style:normal;font-variant:normal;font-weight:normal;font-stretch:normal;text-align:start;line-height:100%;writing-mode:lr-tb;text-anchor:start;fill:#f0f0f0;fill-opacity:1;stroke:none;stroke-width:1px;stroke-linecap:butt;stroke-linejoin:miter;stroke-opacity:1;font-family:Indigo Joker"
       d="M 45.816976,84.955413 C 45.816952,85.858662 45.6234,87.019975 45.236319,88.439355 C 45.004033,89.290987 44.758867,90.129713 44.50082,90.955536 C 44.062079,92.891057 42.965283,94.465282 41.21043,95.678214 C 39.636186,96.762101 37.997444,97.304047 36.2942,97.304054 C 33.171544,97.304047 30.616655,96.013699 28.629526,93.433006 C 27.081102,91.471675 25.9585,89.574863 25.261715,87.742567 C 24.590731,85.884469 23.816522,83.303773 22.939087,80.000472 C 22.577789,78.632714 22.358429,77.135911 22.281009,75.510058 C 22.203588,73.858427 22.164877,72.632597 22.164878,71.832563 C 22.164877,71.910002 22.319719,71.08418 22.629403,69.355093 C 23.687488,63.084023 26.939164,59.948478 32.384442,59.948448 C 33.41671,59.948478 34.061884,60.000092 34.319966,60.10329 C 36.745807,61.187212 38.513584,62.464657 39.623301,63.935627 C 40.732982,65.380843 41.662032,67.22604 42.410455,69.471224 C 42.874959,70.890628 43.107222,71.639029 43.107243,71.716431 C 43.107222,71.97452 43.120125,72.297107 43.145954,72.684193 C 43.171739,73.045508 43.184643,73.290674 43.184664,73.419692 C 43.184643,74.193918 42.629793,74.851995 41.520114,75.393926 C 40.926534,75.677818 38.010348,76.813324 32.771547,78.800448 L 32.848968,79.264974 C 33.15864,79.264985 34.694154,78.735942 37.455514,77.677844 C 40.216843,76.619772 41.623322,76.090729 41.674956,76.090715 C 42.087847,76.090729 42.681407,76.271378 43.455637,76.632661 C 43.687878,76.735903 43.958851,77.264946 44.268557,78.219791 C 44.526604,78.890784 44.862095,79.884352 45.275029,81.200497 C 45.636303,82.852151 45.816952,84.103789 45.816976,84.955413 M 42.991112,84.645729 C 42.99109,84.542507 42.61689,82.723117 41.868508,79.187553 C 38.978109,80.297263 36.771614,81.174699 35.249017,81.819865 C 35.171583,81.871487 35.094162,81.961812 35.016754,82.090838 C 35.223197,82.787634 35.274811,83.471518 35.171596,84.142493 C 35.042548,85.097357 34.90061,85.729627 34.745781,86.039306 C 34.539312,86.452222 34.178015,86.658677 33.661888,86.658674 C 32.139266,86.658677 31.04247,85.097357 30.371498,81.974707 C 29.932771,80.116614 29.713412,78.219803 29.71342,76.284267 C 29.713412,73.445516 30.281165,72.026134 31.41668,72.026115 C 31.93281,72.026134 32.371528,72.348721 32.732837,72.993877 C 32.810246,73.277771 32.913474,73.677779 33.04252,74.193902 C 33.300579,74.916513 33.636069,75.458459 34.048993,75.819741 C 35.184486,75.484266 35.984502,75.174582 36.449042,74.89069 C 37.145815,74.606829 37.855506,74.322953 38.578118,74.03906 C 39.481344,73.626165 39.932966,73.032605 39.932984,72.258378 C 39.932966,70.271261 39.35231,68.516388 38.191013,66.993754 C 36.900649,65.238904 35.19739,64.361468 33.081231,64.361442 C 32.461853,64.361468 31.33925,64.632441 29.71342,65.174362 C 28.939203,65.432456 28.164994,65.909885 27.390791,66.606649 C 26.642384,67.303461 26.113341,68.219608 25.803662,69.355093 C 25.752044,69.535762 25.597202,70.026095 25.339136,70.826091 C 25.10687,71.497091 24.990739,71.884195 24.990742,71.987405 L 24.990742,75.781031 C 24.990739,76.555254 25.081063,77.264946 25.261715,77.910107 C 25.442361,78.348838 25.623009,78.916591 25.803662,79.613368 C 25.829465,80.02629 25.932693,80.529525 26.113346,81.123076 C 26.397218,82.026329 26.539156,82.516661 26.539161,82.594074 C 26.642384,83.265063 26.835936,84.129596 27.119818,85.187676 C 29.829543,90.607142 32.745729,93.316872 35.868385,93.316875 C 37.003877,93.316872 38.255514,92.86525 39.623301,91.962008 C 41.197507,90.955536 42.281399,89.716802 42.87498,88.245803 C 42.978187,87.961929 43.042704,87.52321 43.068533,86.929647 C 43.094318,86.516739 43.081415,86.039311 43.029822,85.49736 C 43.003994,84.852191 42.99109,84.568314 42.991112,84.645729"
       id="text1880"
       transform="matrix(1.160811,0.371542,-0.263695,0.777065,0,0)" />
    <path
       style="fill:#f0f0f0;fill-opacity:1;fill-rule:evenodd;stroke:none;stroke-width:1px;stroke-linecap:butt;stroke-linejoin:miter;stroke-opacity:1"
       d="M 6.2722444,40.501648 L 6.9019822,52.107099 L 6.2722444,63.712549 L 8.7911952,55.091358 L 7.9515452,48.128086 L 6.2722444,40.501648 z "
       id="path1884"
       sodipodi:nodetypes="cccccc" />
    <path
       style="fill:#f0f0f0;fill-opacity:1;fill-rule:evenodd;stroke:none;stroke-width:1px;stroke-linecap:butt;stroke-linejoin:miter;stroke-opacity:1"
       d="M 27.671867,50.863469 L 28.279251,62.907286 L 30.140546,53.526096 L 29.69848,47.018003 L 29.426418,38.848791 L 27.671867,50.863469 z "
       id="path2772"
       sodipodi:nodetypes="cccccc" />
    <path
       style="fill:#f0f0f0;fill-opacity:1;fill-rule:evenodd;stroke:none;stroke-width:1px;stroke-linecap:butt;stroke-linejoin:miter;stroke-opacity:1"
       d="M 62.824733,13.35696 L 62.262708,24.433821 L 62.633473,35.329074 L 64.5628,27.641822 L 64.246421,20.899544 L 62.824733,13.35696 z "
       id="path2774"
       sodipodi:nodetypes="cccccc" />
    <path
       style="fill:#f0f0f0;fill-opacity:1;fill-rule:evenodd;stroke:none;stroke-width:1px;stroke-linecap:butt;stroke-linejoin:miter;stroke-opacity:1"
       d="M 74.120524,13.366192 L 75.38,20.503218 L 76.009737,15.255405 L 75.170087,10.847242 L 76.219649,6.229167 L 74.120524,13.366192 z "
       id="path2776"
       sodipodi:nodetypes="cccccc" />
    <path
       style="fill:#f0f0f0;fill-opacity:1;fill-rule:evenodd;stroke:none;stroke-width:1px;stroke-linecap:butt;stroke-linejoin:miter;stroke-opacity:1"
       d="M 86.283712,8.8427879 L 85.390285,21.174041 L 85.446443,33.336143 L 87.624699,24.833394 L 87.501938,17.304047 L 86.283712,8.8427879 z "
       id="path3738"
       sodipodi:nodetypes="cccccc" />
    <path
       style="fill:#f0f0f0;fill-opacity:1;fill-rule:evenodd;stroke:none;stroke-width:1px;stroke-linecap:butt;stroke-linejoin:miter;stroke-opacity:1"
       d="M 17.826001,42.912929 L 19.085477,50.049955 L 19.715214,44.802142 L 18.875564,40.393979 L 19.925126,35.775904 L 17.826001,42.912929 z "
       id="path3742"
       sodipodi:nodetypes="cccccc" />
    <path
       sodipodi:nodetypes="czccczzcccczczscccccsssssssscssscccccccccscssssscc"
       style="font-size:31.87939072px;font-style:normal;font-variant:normal;font-weight:normal;font-stretch:normal;text-align:start;line-height:100%;writing-mode:lr-tb;text-anchor:start;fill:#f0f0f0;fill-opacity:1;stroke:none;stroke-width:1px;stroke-linecap:butt;stroke-linejoin:miter;stroke-opacity:1;font-family:Indigo Joker"
       d="M 84.084915,51.126945 C 83.525357,52.784157 81.749344,53.725385 80.027476,54.644735 C 78.305609,55.564085 71.677419,56.208202 70.399737,56.106742 C 66.246393,55.721965 64.067141,52.981932 62.155323,49.521044 C 61.466424,46.19114 61.135353,42.660523 62.147571,39.368381 C 62.832468,37.416786 65.084004,33.688836 66.003272,32.119944 C 66.922539,30.551052 68.306322,28.663621 69.529607,27.60078 C 70.715888,26.57009 73.803329,25.104602 74.54625,24.999649 C 76.106042,25.146113 77.053978,25.462324 78.369239,26.265833 C 79.521092,27.333314 80.129945,30.43569 81.201966,32.102704 C 82.12498,34.806662 82.42413,36.109285 82.925176,38.98049 C 83.457261,40.50095 83.33635,42.091264 85.343367,47.272439 M 82.465471,47.784571 C 82.585926,47.473958 82.939803,46.171403 83.025952,45.529391 C 83.112101,44.88738 81.484228,44.08589 81.135725,43.964677 C 80.561663,43.765035 79.275325,43.692207 77.276706,43.746193 C 76.858307,43.86507 76.221529,44.007134 75.366369,44.172385 C 75.295231,44.235779 75.182062,44.317596 75.026861,44.417836 C 74.902193,44.859186 74.655797,45.43445 74.287673,46.14363 C 74.001081,46.462569 73.484179,46.745468 72.736967,46.992329 C 72.408108,47.120311 72.069423,47.123696 71.720911,47.002486 C 71.59789,46.959703 71.320488,46.775099 70.888703,46.448672 C 70.63179,46.271196 70.39789,45.914451 70.187001,45.378432 C 70.129662,45.226303 70.057463,44.782587 69.970405,44.047283 C 69.890855,43.292569 69.888735,42.818145 69.964044,42.624011 C 70.07698,42.332816 70.916463,42.118043 72.482494,41.979689 C 73.785334,41.859977 74.626084,41.821899 75.004743,41.865455 C 75.810548,41.947425 76.538128,41.991163 77.187484,41.996672 C 77.864836,41.989904 78.406313,41.980517 80.864357,41.821911 C 79.383564,34.708901 78.433014,31.503251 76.619973,28.613185 C 76.216242,27.969621 75.196782,28.173322 74.503101,28.042206 C 74.090969,27.964991 73.359847,28.140339 72.309731,28.568251 C 71.287621,28.983914 71.414288,29.899577 70.710595,29.995817 C 69.412938,31.400819 68.571027,32.567507 67.78131,34.313922 C 66.811923,36.289396 65.322757,37.983581 64.48966,40.655631 C 63.330805,44.096873 63.970058,45.016867 64.876523,47.343697 C 65.10223,49.149174 67.079539,51.556926 68.466117,52.061193 C 70.605762,53.057233 73.72493,53.010872 75.911294,52.40466 C 76.881932,52.153975 79.136783,51.288135 79.885547,50.659345 M 75.810369,38.708658 C 75.697406,38.999863 75.474832,39.153789 75.142649,39.170441 C 72.587548,39.339355 71.207497,39.388159 71.002494,39.316852 C 70.612955,39.181386 70.380099,38.791954 70.303924,38.148558 C 70.259114,37.604218 70.319541,37.118501 70.485209,36.691402 C 70.711092,36.109016 71.135515,35.584652 71.758479,35.118306 C 72.480573,34.576306 73.2004,34.430077 73.917966,34.67962 C 74.18447,34.772323 74.533216,35.102915 74.964206,35.671399 C 75.129467,35.905145 75.340145,36.231782 75.59624,36.651313 C 75.674054,36.810581 75.754193,37.113852 75.836659,37.561125 C 75.901944,38.11261 75.893182,38.49512 75.810369,38.708658"
       id="text1876" />
  </g>
</svg>
